Papirus/16x16/apps/qvge.svg

<svg width="16" height="16" version="1" xmlns="http://www.w3.org/2000/svg">
 <rect width="16" height="16" rx=".8" ry=".8" style="fill:#e4e4e4"/>
 <path d="m5 8.5 0.5-0.5h1.5v1h-1.5z" style="fill:#999999"/>
 <circle cx="7.5" cy="8.5" r="1.5" style="fill:#c162c9"/>
 <circle cx="3.5" cy="8.5" r="1.5" style="fill:#009688"/>
 <path d="m7.5 7-0.5-0.5v-2.5h1v2.5z" style="fill:#999999"/>
 <circle cx="7.5" cy="3.5" r="1.5" style="fill:#03a9f4"/>
 <path d="m9 3.5 0.5-0.5h2.5v1h-2.5z" style="fill:#999999"/>
 <circle cx="12.5" cy="3.5" r="1.5" style="fill:#ffc107"/>
 <circle cx="6.5" cy="12.5" r="1.5" style="fill:#ffffff"/>
 <path d="m12.5 5 0.5 0.5v6.5h-1v-6.5z" style="fill:#999999"/>
 <path d="m8 12.5 0.5-0.5h3.5v1h-3.5z" style="fill:#999999"/>
 <circle cx="12.5" cy="12.5" r="1.5" style="fill:#fa3e30"/>
 <path d="m9 9v1l1.4 1.4h1v-1l-1.4-1.4z" style="fill:#999999"/>
</svg>

<svg xmlns="http://www.w3.org/2000/svg" width="16" height="16" version="1">
 <rect style="fill:#e4e4e4" width="16" height="16" rx=".8" ry=".8"/>
 <path style="fill:#808080" d="M 5,8.5 5.5,8 H 7 V 9 H 5.5 Z"/>
 <circle style="fill:#c162c9" cx="7.5" cy="8.5" r="1.5"/>
 <circle style="fill:#009688" cx="3.5" cy="8.5" r="1.5"/>
 <path style="fill:#808080" d="M 7.5,7 7,6.5 V 4 H 8 V 6.5 Z"/>
 <circle style="fill:#03a9f4" cx="7.5" cy="3.5" r="1.5"/>
 <path style="fill:#808080" d="M 9,3.5 9.5,3 H 12 V 4 H 9.5 Z"/>
 <circle style="fill:#ffc107" cx="12.5" cy="3.5" r="1.5"/>
 <circle style="fill:#ffffff" cx="6.5" cy="12.5" r="1.5"/>
 <path style="fill:#808080" d="M 12.5,5 13,5.5 V 12 H 12 V 5.5 Z"/>
 <path style="fill:#808080" d="M 8,12.5 8.5,12 H 12 V 13 H 8.5 Z"/>
 <circle style="fill:#fa3e30" cx="12.5" cy="12.5" r="1.5"/>
 <path style="fill:#808080" d="M 9,9 V 10 L 10.4,11.4 H 11.4 V 10.4 L 10,9 Z"/>
</svg>
